X: 34011
T: Reel Béatrice
R: reel
M: 4/4
K: Aminor
A3B|:c2Ac ~E3B|cAAG ~A3B|c2Ac ~e3e|a2ed e2ab|
c'bag fedc|Bdd^c d4|e^def e=dcB|1 A2z2 A3B:|2 A8||
|:a2fa b~f3|fe^de a4|e2^de fe=dc|cdcB A2az|
a2fa b~f3|fe^de a3z|e^def e=dcB|1 A8:|2 A2z2 G4||
|:c~G3 EGce|c~G3 EGce|d~B3 GBdB|ceba gfed|
c~G3 EGce|c~G3 EGce|d~B3 GBdB|1 cBcd c2(3GAB:|2 cBcd c2AB||

